X:1
T:Send the Gospel Light
T:Ira David Sankey
T:Send the Gospel Light
T:Public Domain
T:Public Domain
C:Ira David Sankey
Z:Public Domain
%%score ( 1 2 ) ( 3 4 )
L:1/8
M:3/4
K:G
V:1 treble 
V:2 treble 
V:3 bass 
V:4 bass 
V:1
 D>[DG] | [GB]3 G [Gc]>[GB] | [GB]2 [FA]2 [FA]>[FB] | [Fc]3 [FA] [Gd]>[Dc] | [DB]4 D>[DG] | %5
w: 1.~Send the|oh, send it quick-|Far a- cross the|heav- ing main; Speed|the news of|
w: 2.~Send the|where souls are dy-|In their dark- ness,|gloom, and night; Haste,|oh haste! the|
w: 3.~Send the|the Lord com- mands|To His Ho- ly|Word at- tend: “Go|ye forth and|
 [GB]3 [GB] [GB]>[=Fd] | [=Fd]2 [Ec]2 [CE]>[Ec] | [DB]3 [DA] [DG]>[CF] | [B,G]4 || %9
w: sal- va- tion, Thro’|a dear Re- deem-|er’s name. * *||
w: are fleet- ing, And|the hours— how swift|their flight. Send the|light,|
w: My Gos- pel; Lo!|I’m with you to|the end.” * *||
"^Refrain" [Dd]>[Gd] | [Fd]3 [DF] [DG]>[DA] | [DB]2 [DB]2 [GB]>[AB] | [GB]3 [Gd] [G^c]>[Gc] | %13
w: ||||
w: oh, send|it quick- ly To|the isles be- yond|the sea; Let them|
w: ||||
 [Fd]4 D>[DG] | [GB]3 [GB] [GB]>[=Fd] | [=Fd]2 [Ec]2 [CE]>[Ec] | [DB]3 [DA] [DG]>[CF] | [B,G]4 |] %18
w: |||||
w: hear the wond-|stor- y— Love is|bound- less, grace is|free! * * *||
w: |||||
V:2
 D3/2 x/ | x3 G x2 | x6 | x6 | x4 D3/2 x/ | x6 | x6 | x6 | x4 || x2 | x6 | x6 | x6 | x4 D3/2 x/ | %14
w: light,|ly|||full||||||||||
w: light,|ing|||days|||||||||rous|
w: light—|it!|||preach||||||||||
 x6 | x6 | x6 | x4 |] %18
w: ||||
w: ||||
w: ||||
V:3
 [G,B,]>[G,B,] | [G,D]3 [G,B,] [G,E]>[G,D] | [D,D]2 [D,D]2 [D,C]>[D,B,] | %3
 [D,A,]3 [D,C] [D,B,]>[F,A,] | G,4 [G,B,]>[G,B,] | [G,D]3 [G,D] [G,D]>[G,B,] | %6
 [B,,G,]2 [C,G,]2 [C,G,]>[C,G,] | [D,G,]3 [D,C] [D,B,]>[D,A,] | [G,,G,]4 || [G,B,]>[G,B,] | %10
 [D,A,]3 [C,A,] [B,,G,]>[D,F,] | G,2 G,2 [G,D]>[F,^D] | [E,E]3 [F,B,] A,>[A,,E] | %13
 (D2 C2) [G,B,]>[G,B,] | [G,D]3 [G,D] [G,D]>[G,B,] | [B,,G,]2 [C,G,]2 [C,G,]>[C,G,] | %16
 [D,G,]3 [D,C] [D,B,]>[D,A,] | [G,,G,]4 |] %18
V:4
 x2 | x6 | x6 | x6 | G,4 x2 | x6 | x6 | x6 | x4 || x2 | x6 | G,2 G,2 x2 | x4 A,3/2 x/ | D,4 x2 | %14
 x6 | x6 | x6 | x4 |] %18

